dist/img/services-item-2.svg

<svg width="90" height="90" viewBox="0 0 90 90" fill="none" xmlns="http://www.w3.org/2000/svg">
<g clip-path="url(#clip0_21_562)">
<path d="M18.5937 55.0326C16.7892 56.2967 15.2916 58.2976 14.3763 60.6679C12.3837 65.8266 13.7151 70.9847 17.4065 72.4102C18.0368 72.6539 18.6905 72.77 19.3497 72.77C22.5481 72.77 25.89 70.0289 27.5414 65.7525C28.4567 63.3822 28.6929 60.8931 28.206 58.7453C27.6759 56.4072 26.3638 54.7256 24.5112 54.0101C22.6593 53.2947 20.5575 53.6579 18.5937 55.0326ZM25.6332 59.3282C26.006 60.9707 25.8096 62.9146 25.0811 64.8022C23.8678 67.9442 21.4192 70.1278 19.3366 70.1278C18.9981 70.1278 18.6685 70.0701 18.3561 69.9492C16.1218 69.0861 15.4262 65.2711 16.8366 61.6182C17.5651 59.7313 18.7269 58.1595 20.1064 57.1934C20.9557 56.5995 21.8072 56.2939 22.5858 56.2939C22.9271 56.2939 23.2546 56.3523 23.5609 56.4711C24.5682 56.8597 25.3043 57.8746 25.6332 59.3282Z" fill="#0779FF"/>
<path d="M65.4064 54.0102C63.5539 54.7256 62.2417 56.4072 61.7116 58.7453C61.2248 60.8931 61.461 63.3815 62.3763 65.7525C63.2916 68.1228 64.7891 70.1237 66.5936 71.3878C67.8996 72.3017 69.2661 72.7686 70.5796 72.7686C71.2415 72.7686 71.8904 72.6498 72.5112 72.4102C74.3637 71.6947 75.6759 70.0131 76.206 67.6758C76.6928 65.5273 76.4573 63.0389 75.5413 60.6679C73.5494 55.5091 69.0972 52.5847 65.4064 54.0102ZM73.6338 67.0921C73.3042 68.5458 72.5681 69.5606 71.5615 69.9493C70.5542 70.3379 69.3279 70.0818 68.107 69.2262C66.7269 68.2601 65.5657 66.6891 64.8365 64.8022C64.108 62.9153 63.9116 60.9707 64.2838 59.3282C64.6134 57.8746 65.3494 56.8597 66.3561 56.4711C66.6685 56.3503 66.9974 56.2926 67.3359 56.2926C69.4192 56.2926 71.8671 58.4761 73.0811 61.6182C73.8096 63.5051 74.006 65.4497 73.6338 67.0921Z" fill="#0779FF"/>
<path d="M89.417 76.9167L76.6441 43.841C75.3353 40.4531 72.3093 37.7072 70.0014 36.0009C67.7273 34.3193 65.7628 32.0959 64.3195 29.5704L58.7137 19.761C59.0295 19.4973 59.2829 19.1629 59.4546 18.7764C59.7478 18.1138 59.7656 17.3763 59.5047 16.7006L58.6313 14.4395C58.0923 13.0442 56.5199 12.3473 55.1239 12.887L45.3797 16.6498C45.2307 16.7075 45.0913 16.7789 44.9588 16.8586C44.8263 16.7789 44.6869 16.7075 44.5379 16.6498L34.7937 12.887C34.118 12.6261 33.3806 12.6439 32.718 12.9371C32.056 13.2303 31.5472 13.7639 31.2856 14.4402L30.4129 16.7006C30.152 17.3763 30.1698 18.1138 30.463 18.7764C30.6347 19.1629 30.8881 19.498 31.2039 19.761L25.5981 29.5704C24.1555 32.0952 22.1903 34.3193 19.9162 36.0009C17.6083 37.7072 14.5823 40.4531 13.2735 43.841L0.500563 76.9167C-0.360491 79.1483 0.550001 81.5859 2.53097 82.3508L21.7392 89.7686C22.1395 89.9238 22.5639 90 22.9923 90C23.6192 90 24.2558 89.8359 24.8408 89.5132C25.7629 89.0044 26.4928 88.1502 26.8945 87.1093L39.6675 54.0336C40.9756 50.6456 40.5807 46.5786 40.0184 43.7641C39.465 40.99 39.5048 38.023 40.1331 35.1838L42.5761 24.1521C42.9874 24.1686 43.3994 24.0924 43.7867 23.9207C44.2735 23.7051 44.6759 23.359 44.9595 22.9223C45.4834 23.7264 46.396 24.1919 47.3415 24.1514L49.7845 35.1838C50.4128 38.023 50.4527 40.99 49.8992 43.7641C49.3369 46.5793 48.942 50.6463 50.2501 54.0336L63.0231 87.1093C63.4254 88.1502 64.1547 89.0037 65.0775 89.5132C65.6625 89.8359 66.2984 90 66.926 90C67.3544 90 67.7788 89.9238 68.1791 89.7686L72.0559 88.2718C72.735 88.0095 73.0728 87.2459 72.8105 86.5661C72.5482 85.887 71.7854 85.5485 71.1056 85.8115L67.2288 87.3084C66.8765 87.4444 66.5284 87.3015 66.3519 87.204C65.977 86.9967 65.6605 86.6163 65.484 86.159L63.8704 81.9814L85.3432 73.6895L86.9561 77.867C87.1326 78.3243 87.1545 78.8187 87.0158 79.2245C86.9506 79.4147 86.7886 79.7546 86.4363 79.8906L76.0192 83.9136C75.3394 84.1759 75.0016 84.9395 75.2639 85.6192C75.5262 86.2983 76.2891 86.6375 76.9695 86.3746L87.3866 82.3515C88.3733 81.9704 89.1479 81.1416 89.5118 80.0773C89.8524 79.0803 89.8187 77.9577 89.417 76.9167ZM24.4336 86.159C24.2571 86.6163 23.9406 86.9967 23.5657 87.204C23.3892 87.3008 23.0411 87.4444 22.6888 87.3084L3.48129 79.8906C2.86743 79.6537 2.62985 78.7267 2.9615 77.867L4.57512 73.6895L26.0472 81.9814L24.4336 86.159ZM43.6308 19.2069L42.7574 21.4673C42.7547 21.4756 42.7464 21.4962 42.7183 21.5092C42.6894 21.5216 42.6688 21.5133 42.6606 21.5106L42.0639 21.2799C41.7055 21.1412 41.3045 21.1659 40.9653 21.3479C40.6268 21.5291 40.3837 21.8498 40.3006 22.2247L37.5574 34.6132C36.8509 37.8067 36.8069 41.15 37.4318 44.2798C37.9042 46.6487 38.2523 49.9906 37.3309 52.7269L24.8524 47.9073C24.1727 47.6443 23.4091 47.9828 23.1468 48.6626C22.8845 49.3424 23.2223 50.1059 23.9021 50.3682L36.3922 55.1912L26.9968 79.5205L5.52543 71.2285L14.9201 46.9L18.9906 48.4717C19.6607 48.7313 20.4366 48.3866 20.6955 47.7164C20.9578 47.0366 20.62 46.2731 19.9402 46.0108L15.8821 44.4439C17.0384 41.7982 19.5419 39.5577 21.4844 38.1219C24.0511 36.224 26.2656 33.7198 27.8888 30.8792L34.184 19.8626C34.3742 19.5289 34.4099 19.1286 34.2815 18.7668C34.1531 18.4049 33.8722 18.1165 33.5138 17.9785L32.9164 17.7471C32.9082 17.7443 32.8876 17.7361 32.8752 17.7079C32.8629 17.6798 32.8711 17.6592 32.8738 17.651L33.7466 15.3905C33.75 15.3823 33.7576 15.3617 33.7864 15.3493C33.7974 15.3438 33.8077 15.3425 33.8166 15.3425C33.829 15.3425 33.8386 15.3459 33.8434 15.3479L43.5876 19.1108C43.626 19.1252 43.6452 19.1684 43.6308 19.2069ZM62.9208 79.5205L53.5254 55.1919L66.2153 50.2913C66.8951 50.0283 67.2329 49.2648 66.9706 48.5857C66.7083 47.9059 65.9447 47.5674 65.265 47.8304L52.5867 52.7269C51.6653 49.9906 52.0127 46.6487 52.4858 44.2804C53.1107 41.15 53.0674 37.8074 52.3602 34.6132L49.617 22.2247C49.5339 21.8498 49.2908 21.5291 48.9523 21.3479C48.6138 21.1659 48.2128 21.1412 47.8537 21.2799L47.257 21.5106C47.2179 21.525 47.1746 21.5058 47.1602 21.468L46.2868 19.2069C46.2724 19.1684 46.2916 19.1252 46.33 19.1101L56.0742 15.3473C56.1134 15.3342 56.1552 15.3514 56.171 15.3898L57.0444 17.651C57.0589 17.6894 57.039 17.7327 57.0012 17.7478L56.4038 17.9785C56.0454 18.1165 55.7652 18.4049 55.6361 18.7668C55.5077 19.1293 55.5434 19.5289 55.7343 19.8626L62.0295 30.8792C63.6527 33.7198 65.8672 36.224 68.4332 38.1219C70.3757 39.5577 72.8792 41.7982 74.0355 44.4432L70.1875 45.9291C69.5084 46.1914 69.1699 46.9549 69.4322 47.6347C69.6911 48.3049 70.467 48.6496 71.1378 48.39L74.9975 46.8993L84.3922 71.2285L62.9208 79.5205Z" fill="#0779FF"/>
<path d="M44.9588 6.5506C45.6873 6.5506 46.2779 5.96077 46.2779 5.23224V1.31905C46.2779 0.590515 45.6873 0 44.9588 0C44.2303 0 43.6398 0.590515 43.6398 1.31905V5.23224C43.6398 5.96077 44.2303 6.5506 44.9588 6.5506Z" fill="#0779FF"/>
<path d="M50.3627 10.0621C50.669 10.0621 50.9759 9.95569 51.2258 9.74008L54.1839 7.1789C54.7346 6.70168 54.7943 5.86878 54.3178 5.31809C53.8406 4.7674 53.0077 4.70835 52.457 5.18419L49.4989 7.74607C48.9482 8.2226 48.8885 9.0555 49.365 9.60619C49.6259 9.90763 49.9933 10.0621 50.3627 10.0621Z" fill="#0779FF"/>
<path d="M35.7337 7.17824L38.6918 9.74012C38.9417 9.95641 39.2486 10.0622 39.5549 10.0622C39.9243 10.0622 40.2917 9.90766 40.5526 9.60622C41.0291 9.05553 40.9694 8.22263 40.4187 7.7461L37.4606 5.18423C36.9099 4.70769 36.077 4.76743 35.5998 5.31812C35.1233 5.86881 35.183 6.70171 35.7337 7.17824Z" fill="#0779FF"/>
</g>
<defs>
<clipPath id="clip0_21_562">
<rect width="90" height="90" fill="white"/>
</clipPath>
</defs>
</svg>

<svg width="90" height="90" fill="none" xmlns="http://www.w3.org/2000/svg"><g clip-path="url(#a)" fill="#0779FF"><path d="M18.594 55.033c-1.805 1.264-3.302 3.265-4.218 5.635-1.992 5.159-.66 10.317 3.03 11.742a5.36 5.36 0 0 0 1.944.36c3.198 0 6.54-2.741 8.191-7.017.916-2.37 1.152-4.86.665-7.008-.53-2.338-1.842-4.02-3.695-4.735-1.852-.715-3.953-.352-5.917 1.023Zm7.04 4.295c.372 1.643.176 3.587-.553 5.474-1.213 3.142-3.662 5.326-5.744 5.326-.339 0-.668-.058-.98-.179-2.235-.863-2.93-4.678-1.52-8.33.728-1.888 1.89-3.46 3.27-4.426.849-.593 1.7-.9 2.479-.9.341 0 .669.06.975.178 1.007.389 1.743 1.404 2.072 2.857Zm39.772-5.318c-1.852.716-3.164 2.397-3.694 4.735-.487 2.148-.251 4.637.664 7.008.916 2.37 2.413 4.37 4.218 5.635 1.306.914 2.672 1.38 3.986 1.38.662 0 1.31-.118 1.931-.358 1.853-.715 3.165-2.397 3.695-4.734.487-2.149.251-4.637-.665-7.008-1.992-5.159-6.444-8.083-10.135-6.658Zm8.228 13.082c-.33 1.454-1.066 2.469-2.073 2.857-1.007.389-2.233.133-3.454-.723-1.38-.966-2.541-2.537-3.27-4.424-.729-1.887-.925-3.831-.553-5.474.33-1.453 1.065-2.468 2.072-2.857a2.7 2.7 0 0 1 .98-.178c2.083 0 4.531 2.183 5.745 5.325.729 1.887.925 3.832.553 5.474Z"/><path d="M89.417 76.917 76.644 43.84c-1.309-3.388-4.335-6.134-6.643-7.84-2.274-1.682-4.238-3.905-5.681-6.43l-5.606-9.81a2.714 2.714 0 0 0 .79-3.06l-.873-2.261a2.714 2.714 0 0 0-3.507-1.553L45.38 16.65c-.15.058-.289.129-.421.209a2.726 2.726 0 0 0-.421-.21l-9.744-3.762a2.697 2.697 0 0 0-2.076.05 2.697 2.697 0 0 0-1.432 1.503l-.873 2.26a2.697 2.697 0 0 0 .05 2.076c.172.387.425.722.74.985l-5.605 9.81c-1.442 2.524-3.408 4.748-5.682 6.43-2.308 1.706-5.334 4.452-6.643 7.84L.502 76.917c-.861 2.231.049 4.669 2.03 5.434l19.208 7.418c.4.155.825.231 1.253.231.627 0 1.264-.164 1.849-.487.922-.509 1.652-1.363 2.053-2.404l12.773-33.075c1.309-3.388.914-7.455.351-10.27-.553-2.774-.513-5.741.115-8.58l2.443-11.032a2.71 2.71 0 0 0 2.383-1.23 2.714 2.714 0 0 0 2.383 1.23l2.443 11.032c.628 2.839.668 5.806.114 8.58-.562 2.815-.957 6.882.351 10.27l12.773 33.075c.402 1.041 1.132 1.895 2.054 2.404a3.83 3.83 0 0 0 1.849.487c.428 0 .853-.076 1.253-.231l3.877-1.497a1.32 1.32 0 0 0-.95-2.46l-3.877 1.496c-.353.136-.7-.007-.877-.104-.375-.207-.692-.588-.868-1.045l-1.614-4.178 21.473-8.291 1.613 4.177c.177.457.198.952.06 1.358-.065.19-.227.53-.58.666L76.02 83.914a1.319 1.319 0 1 0 .95 2.46l10.418-4.022c.986-.382 1.76-1.21 2.125-2.275.34-.997.307-2.12-.095-3.16Zm-64.983 9.242c-.177.457-.493.838-.868 1.045-.177.097-.525.24-.877.104L3.48 79.891c-.614-.237-.851-1.164-.52-2.024l1.614-4.178 21.472 8.292-1.613 4.178ZM43.63 19.207l-.874 2.26a.07.07 0 0 1-.039.042c-.029.013-.05.004-.057.002l-.597-.231a1.317 1.317 0 0 0-1.763.945l-2.744 12.388c-.706 3.194-.75 6.537-.125 9.667.472 2.369.82 5.71-.101 8.447l-12.479-4.82a1.318 1.318 0 1 0-.95 2.461l12.49 4.823-9.395 24.33-21.472-8.293L14.92 46.9l4.07 1.572a1.33 1.33 0 0 0 1.706-.756 1.319 1.319 0 0 0-.756-1.705l-4.058-1.567c1.156-2.646 3.66-4.886 5.602-6.322 2.567-1.898 4.782-4.402 6.405-7.243l6.295-11.016a1.321 1.321 0 0 0-.67-1.884l-.598-.232a.068.068 0 0 1-.04-.04c-.013-.027-.005-.048-.002-.056l.873-2.26c.003-.009.01-.03.04-.042a.07.07 0 0 1 .057-.001l9.744 3.763a.075.075 0 0 1 .043.096ZM62.92 79.52l-9.396-24.328 12.69-4.9a1.32 1.32 0 0 0-.95-2.462l-12.678 4.897c-.922-2.736-.574-6.078-.101-8.447.625-3.13.581-6.473-.126-9.667l-2.743-12.388a1.319 1.319 0 0 0-1.763-.945l-.597.23a.075.075 0 0 1-.097-.042l-.873-2.261a.076.076 0 0 1 .043-.097l9.744-3.763a.076.076 0 0 1 .097.043l.873 2.261a.076.076 0 0 1-.043.097l-.597.23a1.32 1.32 0 0 0-.67 1.885l6.295 11.016c1.624 2.84 3.838 5.345 6.404 7.243 1.943 1.436 4.446 3.676 5.602 6.321l-3.847 1.486a1.32 1.32 0 0 0-.756 1.706 1.331 1.331 0 0 0 1.706.755l3.86-1.49 9.394 24.328-21.471 8.293ZM44.959 6.55c.728 0 1.319-.59 1.319-1.318V1.32a1.32 1.32 0 0 0-2.638 0v3.913c0 .729.59 1.319 1.319 1.319Zm5.404 3.512c.306 0 .613-.106.863-.322l2.958-2.561a1.32 1.32 0 0 0-1.727-1.995l-2.958 2.562a1.319 1.319 0 0 0 .864 2.316ZM35.734 7.178l2.958 2.562a1.316 1.316 0 0 0 1.86-.134 1.319 1.319 0 0 0-.133-1.86L37.46 5.184a1.32 1.32 0 0 0-1.727 1.994Z"/></g><defs><clipPath id="a"><path fill="#fff" d="M0 0h90v90H0z"/></clipPath></defs></svg>
